!!!OTL: If You're Happy and You Know It
!!!COM: unknown
!!!ODT: unknown
!!!YOR: The Folksong Fake Book
!!!YOY: 2000
!!!AST: Children's song
!!!YEC: Brian Luke, 2001
**kern	**harm
*k[b-]	*k[b-]
*M4/4	*M4/4
*F:	*F:
*>A	*>A
8c	.
8c	.
=1	=1
8f	I
8f	.
8f	.
8f	.
8f	.
8f	.
8e	.
8f	.
=2	=2
4g	V7
2r	.
8c	.
8c	.
=3	=3
8g	.
8g	.
8g	.
8g	.
8g	.
8g	.
8f	.
8g	.
=4	=4
4a	I
2r	.
8a	.
8a	.
=5	=5
8b-	IV
8b-	.
8b-	.
8b-	.
8d	.
8d	.
8b-	.
8b-	.
=6	=6
8a	I
8a	.
8a	.
8g	.
8f	.
8f	.
8a	.
8a	.
=7	=7
8g	V7
8g	.
8g	.
8f	.
8e	.
8e	.
8d	.
8e	.
=8	=8
4f	I;
2r	.
*-	*-
